X:1
T:Benton, 12.10.12.10
T:Benton, 12.10.12.10
T:Anonymous, 1871
T:Public Domain Courtesy of the Cyber Hymnal™
C:Anonymous, 1871
Z:Public Domain
Z:Courtesy of the Cyber Hymnal™
%%score ( 1 2 ) ( 3 4 )
L:1/8
Q:1/4=105
M:6/8
K:Eb
V:1 treble 
V:2 treble 
V:3 bass 
V:4 bass 
V:1
 [EG] | [EG]2 [EG] A2 [EA] | [EG]3 [B,E]3 | [B,D]2 [B,E] [B,F]2 [B,G] | [DF]3- [DF]2 [DF] | %5
 E2 [EG] [FB]2 [FB] | [Fe]3 [Fd]3 | [Ec]3 [Ec]3 | [DB]3- [DB]2 [DB] | [DB]2 [DB] [FB]2 [GB] | %10
 [FB]3 [FB]3 | [EB]2 [Ec] [E_d]2 [Ed] | [Ec]3- [Ec]2 [Ec] | [Ac]3 [Ad]3 | [Ge]2 [Ee] (ec)[FA] | %15
 [EG]3 [DF]3 | E3- E2 |] %17
V:2
 x | x3 (EC) x | x6 | x6 | x6 | E2 x4 | x6 | x6 | x6 | x6 | x6 | x6 | x6 | x6 | x3 E2 x | x6 | %16
 E3- E2 |] %17
V:3
 [E,B,] | [E,B,]2 [E,B,] (CE)[E,C] | [E,B,]3 [E,G,]3 | [B,,F,]2 [B,,G,] [B,,A,]2 [B,,B,] | %4
 [B,,A,]3- [B,,A,]2 [B,,A,] | [E,G,]2 [E,B,] [D,B,]2 [D,B,] | [C,^A,]3 [B,,B,]3 | [E,G,]3 F,3 | %8
 [B,,B,]3- [B,,B,]2 [B,,B,] | [B,,B,]2 [B,,C] [B,,D]2 [B,,E] | [B,,F]3 (B,2 A,) | %11
 [E,G,]2 [E,A,] [E,B,]2 [E,B,] | A,3- A,2 A, | A,3 [F,B,]3 | [E,B,]2 [G,B,] [A,C]2 [A,,C] | %15
 [B,,B,]3 [B,,A,]3 | [E,G,]3- [E,G,]2 |] %17
V:4
 x | x3 E,2 x | x6 | x6 | x6 | x6 | x6 | x3 F,3 | x6 | x6 | x3 D,3 | x6 | A,3- A,2 A, | A,3 x3 | %14
 x6 | x6 | x5 |] %17

